X: 108
T:The Giant's Silver
% Nottingham Music Database
S:Chris Dewhurst 1983, via Phil Rowe
M:6/8
K:A
"E7"c2d |"A"efe ece|"A"a2e c2e|"Bm"dcd "E7"Bcd|"A"f2e "E7"c2d|
"A"efe "E"ece|"F#m"a2e "C#m"c2e|"Bm"gfe "E7"dcB|"A"A3 ::
ABA |"E"G2B EFG|"A"A2c ecA|"Bm"dcd "E7"Bcd|"A"f2e c2e|
"D"aba agf|"A""c#"f2e " ""a"c2e|"E7""b"gfe " ""e"dcB|"A"A3 :|<end>
<start>
